public/images/story/player.svg

<svg width="100" height="101" viewBox="0 0 100 101" fill="none" xmlns="http://www.w3.org/2000/svg">
<path d="M38 29.5L38.7829 28.2205C38.32 27.9373 37.7401 27.9261 37.2667 28.1915C36.7932 28.4568 36.5 28.9572 36.5 29.5H38ZM38 71H36.5C36.5 71.5456 36.7963 72.0483 37.2737 72.3125C37.7512 72.5766 38.3344 72.5607 38.7967 72.2709L38 71ZM71.5 50L72.2967 51.2709C72.7367 50.9951 73.0028 50.5112 73 49.9919C72.9972 49.4726 72.7259 48.9916 72.2829 48.7206L71.5 50ZM97 50.5C97 76.4574 75.9574 97.5 50 97.5V100.5C77.6142 100.5 100 78.1142 100 50.5H97ZM50 97.5C24.0426 97.5 3 76.4574 3 50.5H0C0 78.1142 22.3858 100.5 50 100.5V97.5ZM3 50.5C3 24.5426 24.0426 3.5 50 3.5V0.5C22.3858 0.5 0 22.8858 0 50.5H3ZM50 3.5C75.9574 3.5 97 24.5426 97 50.5H100C100 22.8858 77.6142 0.5 50 0.5V3.5ZM36.5 29.5V71H39.5V29.5H36.5ZM38.7967 72.2709L72.2967 51.2709L70.7033 48.7291L37.2033 69.7291L38.7967 72.2709ZM72.2829 48.7206L38.7829 28.2205L37.2171 30.7795L70.7171 51.2794L72.2829 48.7206Z" fill="white"/>
</svg>

<svg xmlns="http://www.w3.org/2000/svg" width="100" height="101" fill="none"><path fill="#fff" d="m38 29.5.783-1.28A1.5 1.5 0 0 0 36.5 29.5zM38 71h-1.5a1.5 1.5 0 0 0 2.297 1.27zm33.5-21 .797 1.27a1.5 1.5 0 0 0-.014-2.55zm25.5.5c0 25.957-21.043 47-47 47v3c27.614 0 50-22.386 50-50zm-47 47c-25.957 0-47-21.043-47-47H0c0 27.614 22.386 50 50 50zm-47-47c0-25.957 21.043-47 47-47v-3C22.386.5 0 22.886 0 50.5zm47-47c25.957 0 47 21.043 47 47h3c0-27.614-22.386-50-50-50zm-13.5 26V71h3V29.5zm2.297 42.77 33.5-21-1.594-2.54-33.5 21zm33.486-23.55-33.5-20.5-1.566 2.56 33.5 20.5z"/></svg>
